svgs/regular/projector.svg

<svg xmlns="http://www.w3.org/2000/svg" viewBox="0 0 640 512"><!-- Font Awesome Pro 6.0.0-alpha2 by @fontawesome - https://fontawesome.com License - https://fontawesome.com/license (Commercial License) --><path d="M576 192H496V192.725C469.195 172.467 436.189 160 400 160C364.221 160 331.527 172.156 304.879 192H64C28.654 192 0 220.652 0 256V384C0 419.346 28.654 448 64 448H80V488C80 501.25 90.75 512 104 512S128 501.25 128 488V448H304.879C331.527 467.844 364.221 480 400 480C436.189 480 469.195 467.533 496 447.275V448H512V488C512 501.25 522.75 512 536 512S560 501.25 560 488V448H576C611.346 448 640 419.348 640 384V256C640 220.654 611.346 192 576 192ZM262.193 400H64C55.178 400 48 392.822 48 384V256C48 247.178 55.178 240 64 240H262.193C248.449 263.617 240 290.707 240 320S248.449 376.383 262.193 400ZM400 432C338.242 432 288 381.756 288 320C288 258.242 338.242 208 400 208S512 258.242 512 320C512 381.756 461.758 432 400 432ZM592 384C592 392.822 584.822 400 576 400H537.807C551.551 376.383 560 349.293 560 320S551.551 263.617 537.807 240H576C584.822 240 592 247.178 592 256V384ZM400 128C413.25 128 424 117.25 424 104V24C424 10.75 413.25 0 400 0S376 10.75 376 24V104C376 117.25 386.75 128 400 128ZM496 136C502.156 136 508.281 133.656 512.969 128.969L568.969 72.969C578.344 63.594 578.344 48.406 568.969 39.031S544.406 29.656 535.031 39.031L479.031 95.031C469.656 104.406 469.656 119.594 479.031 128.969C483.719 133.656 489.844 136 496 136ZM287.031 128.969C291.719 133.656 297.844 136 304 136S316.281 133.656 320.969 128.969C330.344 119.594 330.344 104.406 320.969 95.031L264.969 39.031C255.594 29.656 240.406 29.656 231.031 39.031S221.656 63.594 231.031 72.969L287.031 128.969ZM104 296C90.746 296 80 306.744 80 320C80 333.254 90.746 344 104 344C117.256 344 128 333.254 128 320C128 306.744 117.256 296 104 296ZM184 296C170.746 296 160 306.744 160 320C160 333.254 170.746 344 184 344C197.256 344 208 333.254 208 320C208 306.744 197.256 296 184 296Z"/></svg>

<svg xmlns="http://www.w3.org/2000/svg" viewBox="0 0 640 512"><!--! Font Awesome Pro 6.0.0-alpha3 by @fontawesome - https://fontawesome.com License - https://fontawesome.com/license (Commercial License) --><path d="M576 192h-80v.7246C469.2 172.5 436.2 160 400 160c-35.78 0-68.47 12.16-95.12 32H64C28.65 192 0 220.7 0 256v128c0 35.35 28.65 64 64 64h16v40C80 501.3 90.75 512 104 512S128 501.3 128 488V448h176.9C331.5 467.8 364.2 480 400 480c36.19 0 69.2-12.47 96-32.72V448H512v40c0 13.25 10.75 24 24 24s24-10.75 24-24V448H576c35.35 0 64-28.65 64-64V255.1C640 220.7 611.3 192 576 192zM262.2 400H64c-8.822 0-16-7.178-16-16V256c0-8.822 7.178-16 16-16h198.2C248.4 263.6 240 290.7 240 320S248.4 376.4 262.2 400zM400 432C338.2 432 288 381.8 288 320c0-61.76 50.24-112 112-112S512 258.2 512 320C512 381.8 461.8 432 400 432zM592 384c0 8.822-7.178 16-16 16h-38.19C551.6 376.4 560 349.3 560 320s-8.449-56.38-22.19-80H576c8.822 0 16 7.178 16 16V384zM400 128c13.25 0 24-10.75 24-24v-80C424 10.75 413.3 0 400 0s-24 10.75-24 24v80C376 117.3 386.8 128 400 128zM496 136c6.156 0 12.28-2.344 16.97-7.031l56-56c9.375-9.375 9.375-24.56 0-33.94s-24.56-9.375-33.94 0l-56 56c-9.375 9.375-9.375 24.56 0 33.94C483.7 133.7 489.8 136 496 136zM287 128.1C291.7 133.7 297.8 136 304 136s12.28-2.344 16.97-7.031c9.375-9.375 9.375-24.56 0-33.94l-56-56c-9.375-9.375-24.56-9.375-33.94 0s-9.375 24.56 0 33.94L287 128.1zM104 296C90.75 296 80 306.7 80 320c0 13.25 10.75 24 24 24C117.3 344 128 333.3 128 320C128 306.7 117.3 296 104 296zM184 296C170.7 296 160 306.7 160 320c0 13.25 10.75 24 24 24c13.26 0 24-10.75 24-24C208 306.7 197.3 296 184 296z"/></svg>
